X:1
T:Preserve me, Lord, from crafty foes
T:Joseph Stephenson
T:p51, Church Harmony Sacred to Devotion, 4th ed. London: [c1763-1771]
T:This edition by Edmund Gooch released into the public domain, September 2014.
T:Preserve me, Lord, from crafty foes
T:Ps. 140th. for time of War or Persecution.
C:Joseph Stephenson
Z:p51, Church Harmony
Z:Sacred to Devotion, 4th ed.
Z:London: [c1763-1771]
%%score [ 1 2 3 4 ]
L:1/8
M:4/4
K:Gmin
V:1 treble nm="SOPRANO" snm="S."
V:2 treble nm="ALTO" snm="A."
V:3 treble-8 transpose=-12 nm="TENOR" snm="T."
V:4 bass nm="BASS" snm="B."
V:1
 z4 G4 | B4 G4 | ^F4 B4 | A4 G4 | ^F8 | z4 ^F4 | G4 B4 | (A2 G2) ^F4 | G8 | z4 G4 | A4 (A2 Bc) | %11
w: But|thus en-|vi- ron’d|with dis-|tress,|Thou|art my|God, _ I|said;|Lord,|hear my _ _|
w: Pre-|serve me,|Lord, from|craf- ty|foes|Of|trea- che-|rous _ in-|tent;|And|from the _ _|
w: The|proud for|me have|laid their|snare,|And|spread their|wi- * ly|net;|With|traps and _ _|
 d4 B4 | A4 G4 | ^F8 | z4 B4 | A4 B4 | (A2 G2) ^F4 | G8 |] %18
w: sup- pli-|ca- ting|voice,|That|calls to|thee _ for|aid.|
w: sons of|vi- o-|lence,|On|o- pen|mis- * chief|bent.|
w: gins, wher-|e’er I|move,|I|find my|steps _ be-|set.|
V:2
 z4 D4 | D4 D4 | D4 F4 | F4 D4 | D8 | z4 D4 | D4 F4 | E4 D4 | D8 | z4 D4 | F4 F4 | F4 F4 | F4 D4 | %13
w: But|thus en-|vi- ron’d|with dis-|tress,|Thou|art my|God, I|said;|Lord,|hear my|sup- pli-|ca- ting|
w: Pre-|serve me,|Lord, from|craf- ty|foes|Of|trea- che-|rous in-|tent;|And|from the|sons of|vi- o-|
w: The|proud for|me have|laid their|snare,|And|spread their|wi- ly|net;|With|traps and|gins, wher-|e’er I|
 D8 | z4 F4 | F4 D4 | E4 D4 | D8 |] %18
w: voice,|That|calls to|thee for|aid.|
w: lence,|On|o- pen|mis- chief|bent.|
w: move,|I|find my|steps be-|set.|
V:3
 z4 G4 | G4 B4 | A4 d4 | c4 (G3 A/B/) | A8 | z4 A4 | B4 d4 | (c2 B2) A4 | G8 | z4 B4 | d4 c4 | %11
w: But|thus en-|vi- ron’d|with dis- * *|tress,|Thou|art my|God, _ I|said;|Lord,|hear my|
w: Pre-|serve me,|Lord, from|craf- ty _ _|foes|Of|trea- che-|rous _ in-|tent;|And|from the|
w: The|proud for|me have|laid their _ _|snare,|And|spread their|wi- * ly|net;|With|traps and|
 B4 d4 | c4 B4 | A8 | z4 d4 | c4 (G3 A/B/) | (c2 B2) A4 | G8 |] %18
w: sup- pli-|ca- ting|voice,|That|calls to _ _|thee _ for|aid.|
w: sons of|vi- o-|lence,|On|o- pen _ _|mis- * chief|bent.|
w: gins, wher-|e’er I|move,|I|find my _ _|steps _ be-|set.|
V:4
 z4 G,4 | G,4 G,,4 | D,4 B,,4 | F,4 G,4 | D,8 | z4 D,4 | G,4 B,,4 | C,4 D,4 | G,,8 | %9
w: But|thus en-|vi- ron’d|with dis-|tress,|Thou|art my|God, I|said;|
w: Pre-|serve me,|Lord, from|craf- ty|foes|Of|trea- che-|rous in-|tent;|
w: The|proud for|me have|laid their|snare,|And|spread their|wi- ly|net;|
"^Notes: The alto part is printed in the alto clef in the source.The text is indicated in the source by the heading ‘Ps. 140th’, and by the opening words of the first verse, ‘Preserve meLord &c.’. This first verse has here been given in full and three other verses selected from the text have been addededitorially." z4 G,4 | %10
w: Lord,|
w: And|
w: With|
 D,4 F,4 | B,,4 B,4 | F,4 G,4 | D,8 | z4 B,,4 | F,4 G,4 | C,4 D,4 | G,,8 |] %18
w: hear my|sup- pli-|ca- ting|voice,|That|calls to|thee for|aid.|
w: from the|sons of|vi- o-|lence,|On|o- pen|mis- chief|bent.|
w: traps and|gins, wher-|e’er I|move,|I|find my|steps be-|set.|

